!!!!SEGMENT: pl-wn--sd-xvi-o-269_hey-stawicki-michal--kancjonal-zamoyskich-piesn-nowo-uczyniona-na-wesele-jana-kostki-z-stymbarku-bog-wieczny-a-wszechmocny-pan-narodu.krn
!!!cenid: 15xx:825
!!!COM: Hey-Stawicki, Michał
!!!COM-rismID: pe30013356
!!!CDT: <1544->1559
!!!CNT:
!!!GTL: Kancjonał Zamoyskich
!!!OTL: Pieśń nowo uczyniona na wesele Jana Kostki z Stymbarku/Bóg wieczny a wszechmocny Pan narodu
!!!PDT: 1558
!!!AGN:
!!!SMS-siglum: PL-Wn
!!!SMS-shelfmark: SD XVI.O.269
!!!SMS-shelfwork: G
!!!SMS-variant:
!!!SMS-altvar:
!!!NIFC-rismSourceID: 990029343
!!!NIFC-islandoraID:
!!!URL-pdf-islandora:
!!!URL-scan: https://polona.pl/item/piesn-nowo-vczyniona-na-wesele-jana-kostki-z-sthymbarku-podskarbiego-ziem,MTE3MTUzMg/3 @EN{Scan on Polona} @PL{Skany w portalu Polona}
!!!ONB-nifc: UWAGA: proszę zapisywać tylko teksty występujące bezpośrednio pod nutami
!!!AIN: 1 alto 1 bass 1 soprn 1 tenor
!!!key: G:mix
**kern	**text	**mod-text	**kern	**text	**mod-text	**kern	**text	**mod-text	**kern	**text	**mod-text
*part4	*part4	*part4	*part3	*part3	*part3	*part2	*part2	*part2	*part1	*part1	*part1
*staff4	*staff4	*staff4	*staff3	*staff3	*staff3	*staff2	*staff2	*staff2	*staff1	*staff1	*staff1
*I"BASS.	*	*	*I"TENOR.	*	*	*I"ALT.	*	*	*I"CANTVS.	*	*
*mI"Basso	*	*	*mI"Tenore	*	*	*mI"Alto	*	*	*mI"Soprano	*	*
*I'B	*	*	*I'T	*	*	*I'A	*	*	*I'S	*	*
*Ibass	*	*	*Itenor	*	*	*Ialto	*	*	*Isoprn	*	*
*ICvox	*	*	*ICvox	*	*	*ICvox	*	*	*ICvox	*	*
*clefF4	*	*	*clefC4	*	*	*clefC3	*	*	*clefG2	*	*
*	*	*	*mclefGv2	*	*	*mclefG2	*	*	*	*	*
*k[b-]	*	*	*k[b-]	*	*	*k[b-]	*	*	*k[b-]	*	*
*G:mix	*	*	*G:mix	*	*	*G:mix	*	*	*G:mix	*	*
*M2/1	*	*	*M2/1	*	*	*M2/1	*	*	*M2/1	*	*
*met(C|)	*	*	*met(C|)	*	*	*met(C|)	*	*	*met(C|)	*	*
*mmet(c|)	*	*	*mmet(c|)	*	*	*mmet(c|)	*	*	*mmet(c|)	*	*
=1-	=1-	=1-	=1-	=1-	=1-	=1-	=1-	=1-	=1-	=1-	=1-
2G\	Bog	Bóg	2G/	Bog	Bóg	2d\	.	Bóg	2g/	.	Bóg
2G\	wie-	wie-	2G/	wie-	wie-	2d\	.	wie-	2g/	.	wie-
2G\	-czny	-czny	2d\	-czny	-czny	2g\	.	-czny	2b-/	.	-czny
2G\	a	a	2d\	a	a	2g\	.	a	2b-/	.	a
=2-	=2-	=2-	=2-	=2-	=2-	=2-	=2-	=2-	=2-	=2-	=2-
2C/	wſſech-	wszech-	2e-X\	wſſech-	wszech-	2g\	.	wszech-	2cc\	.	wszech-
2G\	-mo-	-mo-	2d\	-mo-	-mo-	2g\	.	-mo-	2b-/	.	-mo-
2C/	-cny	-cny	2c\	-cny	-cny	2e-X\	.	-cny	2ee-X\	.	-cny
2GG/	Pan	Pan	2B-\	Pan	Pan	2g\	.	Pan	2dd\	.	Pan
=3-	=3-	=3-	=3-	=3-	=3-	=3-	=3-	=3-	=3-	=3-	=3-
2C/	na-	na-	2e-X\	na-	na-	2g\	.	na-	2cc\	.	na-
!	!	!	!LO:SIC:v:t=custos d	!	!	!	!	!	!	!	!
2B-\	-ro-	-ro-	2e-\	-ro-	-ro-	4e-X\	.	-ro-	4g/	.	-ro-
!	!	!	!LO:LB:g=original	!	!	!	!	!	!	!	!
!	!	!	!	!	!	!	!	!	!LO:SIC:v:t=custos b-	!	!
.	.	.	.	.	.	4f\	.	.	4a/	.	.
!	!	!	!	!	!	!	!	!	!LO:LB:g=original	!	!
!LO:SIC:v:t=custos A	!	!	!	!	!	!	!	!	!	!	!
2G\	-du	-du	2d\	-du	-du	2g\	.	-du	2b-/	.	-du
!LO:LB:g=original	!	!	!	!	!	!	!	!	!	!	!
!	!	!	!	!	!	!LO:SIC:v:t=custos g	!	!	!	!	!
2A\	ludz-	ludz-	2c\	ludz-	ludz-	2f\	.	ludz-	2cc\	.	ludz-
!	!	!	!	!	!	!LO:LB:g=original	!	!	!	!	!
=4-	=4-	=4-	=4-	=4-	=4-	=4-	=4-	=4-	=4-	=4-	=4-
1G	-kie-	-kie-	1d	-kie-	-kie-	1g	.	-kie-	2cc\	.	-kie-
!	!	!	!	!	!	!	!	!	!LO:MO:mod=!null:null	!	!
!	!	!	!	!	!	!	!	!	!LO:N:acc=#	!	!
!	!	!	!	!	!	!	!	!	!LO:TX:t=P:problem:# below	!	!
.	.	.	.	.	.	.	.	.	2bn/	.	.
1C;	-go/	-go	1c;<	-go/	-go	1eny;<	.	-go	1cc;	.	-go
=5-	=5-	=5-	=5-	=5-	=5-	=5-	=5-	=5-	=5-	=5-	=5-
2.BB-/	Ra-	ra-	2.B-\	Ra-	ra-	2.f\	.	ra-	2.dd\	.	ra-
4F\	-czył	-czył	4c\	-czył	-czył	4f\	.	-czył	4cc\	.	-czył
2BB-/	przeź-	przej-	2d\	przeź-	przej-	2f\	.	przej-	2b-y/	.	przej-
2D/	-rzec	-rzeć	2d\	-rzec	-rzeć	2F/	.	-rzeć	4a/	.	-rzeć
.	.	.	.	.	.	.	.	.	4b-/	.	.
=6-	=6-	=6-	=6-	=6-	=6-	=6-	=6-	=6-	=6-	=6-	=6-
2AA/	mo-	mo-	2.c\	mo-	mo-	2A/	.	mo-	2cc\	.	mo-
2C/	-cą	-cą	.	.	.	2e\	.	-cą	2g/	.	-cą
.	.	.	4B-\	-cą	-cą	.	.	.	.	.	.
2FF/	Bo-	Bó-	2A/	Bo-	Bó-	2c/	.	Bó-	2a/	.	Bó-
!	!	!	!	!	!	!	!	!	!LO:SIC:v:t=custos cc	!	!
2GG/	-ſtwa	-stwa	2G/	-ſtwa	-stwa	2g\	.	-stwa	2b-/	.	-stwa
!	!	!	!	!	!	!	!	!	!LO:LB:g=original	!	!
=7-	=7-	=7-	=7-	=7-	=7-	=7-	=7-	=7-	=7-	=7-	=7-
!	!	!	!LO:SIC:v:t=custos B-	!	!	!	!	!	!	!	!
4FF/	ſwe-	swe-	2A/	ſwe-	swe-	2f\	.	swe-	2cc\	.	swe-
4F\	.	.	.	.	.	.	.	.	.	.	.
!	!	!	!LO:LB:g=original	!	!	!	!	!	!	!	!
!LO:SIC:v:t=custos E	!	!	!	!	!	!	!	!	!	!	!
2G\	-go/	-go	2B-\	-go	-go	2d\	.	-go	4b-/	.	-go
.	.	.	.	.	.	.	.	.	4a/	.	.
!LO:LB:g=original	!	!	!	!	!	!	!	!	!	!	!
!LO:SIC:s=2E-i	!	!	!	!	!	!	!	!	!	!	!
2E\	na-	naj-	2c\	na-	naj-	2e-X\	.	naj-	2g/	.	naj-
2BB-/	-ſwięt-	-święt-	4B-\	-ſwięt-	-święt-	2d\	.	-święt-	1f/	.	-święt-
.	.	.	4A\	.	.	.	.	.	.	.	.
=8-	=8-	=8-	=8-	=8-	=8-	=8-	=8-	=8-	=8-	=8-	=8-
!	!	!	!	!	!	!LO:SIC:v:t=custos c	!	!	!	!	!
1C	-ſſe-	-sze-	1G	-ſſe-	-sze-	1c	.	-sze-	.	.	.
.	.	.	.	.	.	.	.	.	2e/	.	-sze-
!	!	!	!	!	!	!LO:LB:g=original	!	!	!	!	!
1FF;	-go/	-go	1F;	-go/	-go	1c;	.	-go	1f;	.	-go
=9-	=9-	=9-	=9-	=9-	=9-	=9-	=9-	=9-	=9-	=9-	=9-
2.F\	Stan	stan	2.c\	Stan	stan	2.f\	.	stan	2.a/	.	stan
4BB-/	czło-	czło-	4d\	czło-	czło-	4f\	.	czło-	4b-/	.	czło-
2F\	-wie-	-wie-	2c\	-wie-	-wie-	2f\	.	-wie-	2cc\	.	-wie-
2C/	-czy	-czy	2c\	-czy	-czy	2g\	.	-czy	2ee-X\	.	-czy
=10-	=10-	=10-	=10-	=10-	=10-	=10-	=10-	=10-	=10-	=10-	=10-
2.BB-/	Ja-	ja-	2.B-\	Ja-	ja-	2.f\	.	ja-	2.dd\	.	ja-
!	!	!	!LO:SIC:v:t=custos d	!	!	!	!	!	!LO:SIC:v:t=custos b-	!	!
4FF/	-ko	-ko	4c\	-ko	-ko	4f\	.	-ko	4cc\	.	-ko
!	!	!	!LO:LB:g=original	!	!	!	!	!	!LO:LB:g=original	!	!
2BB-/	miał	miał	2d\	mial	miał	2f\	.	miał	2b-/	.	miał
!LO:SIC:v:t=custos D	!	!	!	!	!	!	!	!	!	!	!
2C/	żyć	żyć	2e-X\	żyć	żyć	2c/	.	żyć	4g/	.	żyć
.	.	.	.	.	.	.	.	.	4a/	.	.
!LO:LB:g=original	!	!	!	!	!	!	!	!	!	!	!
=11-	=11-	=11-	=11-	=11-	=11-	=11-	=11-	=11-	=11-	=11-	=11-
2D/	ku	ku	2d\	ku	ku	2f\	.	ku	2b-/	.	ku
2F\	wiecz-	wie-	2c\	wiecz-	wie-	2f\	.	wie-	2a/	.	wie-
2G\	-ney	-cznej	2B-\	-ney	-cznej	2d\	.	-cznej	2g/	.	-cznej
!	!	!	!	!	!	!	!	!	!LO:TX:t=P:problem:# above	!	!
2D/	tći	czci	2A/	tcy	czci	2d\	.	czci	2f#X/	.	czci
=12-	=12-	=12-	=12-	=12-	=12-	=12-	=12-	=12-	=12-	=12-	=12-
!	!	!	!	!	!	!LO:SIC:s=1B-	!	!	!	!	!
!LO:SIC:s=1GG	!	!	!LO:SIC:s=1G	!	!	!LO:TX:b:t=P:problem:w źrodle pod nutą zapiski '2l y'	!	!	!LO:SIC:s=1g	!	!
1GG;	ie-	Je-	1G;	ie-	Je-	1B-;	.	Je-	1g;	.	Je-
!LO:SIC:s=1GG;	!	!	!LO:SIC:s=1G;	!	!	!LO:SIC:s=1B-;	!	!	!LO:SIC:s=1g;	!	!
1GGl	-go.	-go.	1Gl	-go.	-go.	1B-l	.	-go.	1gl	.	-go.
==	==	==	==	==	==	==	==	==	==	==	==
*-	*-	*-	*-	*-	*-	*-	*-	*-	*-	*-	*-
!!!system-decoration: [(*)]
!!LO:MO:ori
!!!RDF**kern: l = terminal long
!!!RDF**kern: < = below
!!LO:MO:mod
!! !!!RDF**kern: i = editorial accidental
!!LO:MO:end
!!!filter-modern: shed -e "s/TX(.*):t=P:/tx$1:t=P:/LG" | shed -e "s/^custos:/Xcustos:/I" | sic -sq | modori -m | autostem -r | tie -s | humtr -p | shed -e "s/-//B"
!!!ENC: Mateusz Solarz
!!!END: 2022-04-27
!!!ENC: Wojciech Jakubiak-Danek
!!!END: 2022-05-10
!!!ENC-modern: Andrzej Kubiczek
!!!END-modern: 2022-07-24
!!!YEC: Copyright 2022 Narodowy Instytut Fryderyka Chopina (https://polishscores.org)
!!!YEM: Licence CC BY 4.0 (https://creativecommons.org/licenses/by/4.0)
